icons/folder-list-outline.svg

<svg xmlns="http://www.w3.org/2000/svg" width="24" height="24" viewBox="0 0 24 24">
  <path d="M11,4 C11.2652165,4 11.5195704,4.10535684 11.7071068,4.29289322 L11.7071068,4.29289322 L13.415,6 L19,6 C20.5976809,6 21.9036609,7.24891996 21.9949073,8.82372721 L21.9949073,8.82372721 L22,9 L22,17 C22,18.6568542 20.6568542,20 19,20 L19,20 L5,20 C3.34314575,20 2,18.6568542 2,17 L2,17 L2,7 C2,5.34314575 3.34314575,4 5,4 L5,4 Z M10.585,6 L5,6 C4.44771525,6 4,6.44771525 4,7 L4,7 L4,17 C4,17.5522847 4.44771525,18 5,18 L5,18 L19,18 C19.5522847,18 20,17.5522847 20,17 L20,17 L20,9 C20,8.44771525 19.5522847,8 19,8 L19,8 L13,8 C12.7347835,8 12.4804296,7.89464316 12.2928932,7.70710678 L12.2928932,7.70710678 L10.585,6 Z M15,14 C15.5522847,14 16,14.4477153 16,15 C16,15.5128358 15.6139598,15.9355072 15.1166211,15.9932723 L15,16 L9,16 C8.44771525,16 8,15.5522847 8,15 C8,14.4871642 8.38604019,14.0644928 8.88337887,14.0067277 L9,14 L15,14 Z M15,10 C15.5522847,10 16,10.4477153 16,11 C16,11.5128358 15.6139598,11.9355072 15.1166211,11.9932723 L15,12 L9,12 C8.44771525,12 8,11.5522847 8,11 C8,10.4871642 8.38604019,10.0644928 8.88337887,10.0067277 L9,10 L15,10 Z"/>
</svg>

<svg xmlns="http://www.w3.org/2000/svg" viewBox="0 0 24 24">
  <path d="M11 4a1 1 0 0 1 .7.3L13.42 6H19a3 3 0 0 1 3 2.82V17a3 3 0 0 1-3 3H5a3 3 0 0 1-3-3V7a3 3 0 0 1 3-3zm-.41 2H5a1 1 0 0 0-1 1v10a1 1 0 0 0 1 1h14a1 1 0 0 0 1-1V9a1 1 0 0 0-1-1h-6a1 1 0 0 1-.7-.3L10.58 6zM15 14a1 1 0 0 1 .12 2H9a1 1 0 0 1-.12-2H15zm0-4a1 1 0 0 1 .12 2H9a1 1 0 0 1-.12-2H15z"/>
</svg>
